src/assets/icons/rupee.svg

<svg width="24" height="24" viewBox="0 0 24 24" fill="none" xmlns="http://www.w3.org/2000/svg">
<path fill-rule="evenodd" clip-rule="evenodd" d="M2 12C2 6.46667 6.46667 2 12 2C17.5333 2 22 6.46667 22 12C22 17.5333 17.5333 22 12 22C6.46667 22 2 17.5333 2 12ZM15.3333 10.3333C15.3333 10.0222 15.0889 9.77775 14.7778 9.77775L14.1556 9.77778C14.089 9.37786 13.9112 8.99994 13.6667 8.66667H14.7778C15.0889 8.66667 15.3334 8.42221 15.3334 8.11111C15.3334 7.80001 15.0889 7.55556 14.7778 7.55556H9.22226C8.91116 7.55556 8.6667 7.80001 8.6667 8.11111C8.6667 8.42221 8.91116 8.66667 9.22226 8.66667H11.4445C12.1779 8.66667 12.8001 9.13341 13.0223 9.77778H9.22226C8.91116 9.77778 8.6667 10.0222 8.6667 10.3333C8.6667 10.6444 8.91116 10.8889 9.22226 10.8889L13.0003 10.889C12.7559 11.5334 12.1558 12.0002 11.4225 12.0002H9.20023C8.9781 12.0002 8.77798 12.1335 8.68916 12.3334C8.60034 12.5335 8.64467 12.7778 8.80031 12.9335L12.1336 16.2668C12.2446 16.3779 12.3779 16.4224 12.5336 16.4224C12.689 16.4224 12.8223 16.3779 12.9335 16.2668C13.1558 16.0667 13.1558 15.7112 12.9335 15.4889L10.5556 13.1111H11.4444C12.7778 13.1111 13.8889 12.1556 14.1555 10.8889H14.7778C15.0889 10.8889 15.3333 10.6444 15.3333 10.3333Z" fill="#0E286A"/>
</svg>

<svg xmlns="http://www.w3.org/2000/svg" width="24" height="24" fill="none" viewBox="0 0 24 24">
  <path fill="#0E286A" fill-rule="evenodd" d="M2 12C2 6.467 6.467 2 12 2s10 4.467 10 10-4.467 10-10 10S2 17.533 2 12Zm13.333-1.667a.55.55 0 0 0-.555-.555h-.622a2.625 2.625 0 0 0-.49-1.111h1.112a.55.55 0 0 0 .555-.556.55.55 0 0 0-.555-.555H9.222a.55.55 0 0 0-.555.555.55.55 0 0 0 .555.556h2.223c.733 0 1.355.466 1.577 1.11h-3.8a.55.55 0 0 0-.555.556.55.55 0 0 0 .555.556H13c-.244.644-.844 1.111-1.578 1.111H9.2a.561.561 0 0 0-.51.333.546.546 0 0 0 .11.6l3.334 3.334a.535.535 0 0 0 .4.155.536.536 0 0 0 .4-.155c.222-.2.222-.556 0-.778l-2.378-2.378h.888c1.334 0 2.445-.955 2.711-2.222h.623a.55.55 0 0 0 .555-.556Z" clip-rule="evenodd"/>
</svg>
